MB/img/icon/step_4.svg

<svg width="35" height="35" viewBox="0 0 35 35" fill="none" xmlns="http://www.w3.org/2000/svg">
<path fill-rule="evenodd" clip-rule="evenodd" d="M24.9512 7.31552C27.9857 8.01968 29.1465 9.79408 30.6018 12.2363H24.9512V7.31552ZM7.21725 12.4414C7.81139 12.4414 8.24265 12.7282 8.24265 13.3984C8.24265 13.9637 7.78522 14.4222 7.22019 14.4238H1.02539C0.459023 14.4238 0 14.8831 0 15.4492C0 16.0156 0.459023 16.4746 1.02539 16.4746H10.2539C10.8256 16.4746 11.2833 16.9334 11.2833 17.5C11.2833 18.0664 10.8243 18.5254 10.2579 18.5254H1.02539C0.459023 18.5254 0 18.9844 0 19.5508C0 20.1172 0.459023 20.5762 1.02539 20.5762H3.28125V23.6523C3.28125 24.2187 3.74027 24.6777 4.30664 24.6777H6.36784C6.73527 26.4877 8.3345 27.8223 10.2197 27.8223C12.1049 27.8223 13.7042 26.4877 14.0716 24.6777H24.4831C24.8505 26.4877 26.4497 27.8223 28.335 27.8223C30.2202 27.8223 31.8194 26.4877 32.1869 24.6777H33.9746C34.541 24.6777 35 24.2187 35 23.6523V17.5C35 14.4914 31.8266 14.2917 31.8237 14.2871H23.9258C23.3594 14.2871 22.9004 13.8281 22.9004 13.2617V7.10938H4.30664C3.74027 7.10938 3.28125 7.5684 3.28125 8.13477V10.3906H2.05078C1.48441 10.3906 1.02539 10.8496 1.02539 11.416C1.02539 11.9824 1.48441 12.4414 2.05078 12.4414H7.21725ZM29.6642 22.5623C30.3983 23.2964 30.3983 24.4871 29.6642 25.2211C28.4834 26.4019 26.4551 25.5619 26.4551 23.8916C26.4551 22.2216 28.4834 21.3815 29.6642 22.5623ZM11.549 22.5623C12.2831 23.2964 12.2831 24.4871 11.549 25.2211C10.3682 26.4019 8.33984 25.5619 8.33984 23.8916C8.33984 22.2216 10.3682 21.3815 11.549 22.5623Z" fill="#5C9188"/>
</svg>

<svg width="35" height="35" fill="none" xmlns="http://www.w3.org/2000/svg"><path fill-rule="evenodd" clip-rule="evenodd" d="M24.951 7.316c3.035.704 4.195 2.478 5.65 4.92h-5.65v-4.92zM7.217 12.44c.594 0 1.026.287 1.026.957 0 .566-.458 1.024-1.023 1.026H1.025a1.025 1.025 0 000 2.05h9.229a1.025 1.025 0 11.004 2.051H1.025a1.025 1.025 0 100 2.051h2.256v3.076c0 .567.46 1.026 1.026 1.026h2.06a3.932 3.932 0 007.705 0h10.411a3.932 3.932 0 007.704 0h1.788c.566 0 1.025-.46 1.025-1.026V17.5c0-3.009-3.173-3.208-3.176-3.213h-7.898a1.025 1.025 0 01-1.026-1.025V7.109H4.307c-.567 0-1.026.46-1.026 1.026v2.256h-1.23a1.025 1.025 0 100 2.05h5.166zm22.447 10.121a1.88 1.88 0 010 2.66c-1.18 1.18-3.209.34-3.209-1.33 0-1.67 2.028-2.51 3.21-1.33zm-18.115 0a1.88 1.88 0 010 2.66c-1.18 1.18-3.21.34-3.21-1.33 0-1.67 2.03-2.51 3.21-1.33z" fill="#4066C4"/></svg>
